X: 144
T: Cantantibus organis – Larghetto
C: Franciszek Walczyński
%%abc-version 2.0
%%abcx-abcm2ps-target-version 5.9.1 (29 Sep 2008)
%%abc-creator hum2abc beta
%%abcx-conversion-date 2021/10/04 07:38:38
%%abc-edited-by Andrzej Kubiczek
%%abc-edited-by Andrzej Gręziak
%%abcx-initial-encoding-date 2021-08-09
%%humdrum-veritas 2370177861
%%humdrum-veritas-data 151562702
%%linebreak <none>
%%barnumbers 0
L: 1/8
M: 3/4
N: Derived from pl-kozmzk--mzk-m-346--046_walczynski-franciszek--cantantibus-organis-larghetto.krn
Q: "Larghetto."
%%staves {1 2}
V: 1 clef=treble
V: 2 clef=bass
K: Eb
[V:1] G2AG^FG & E6- | 
[V:2] B,2CB,=A,B, & E,6- | 
[V:1] e>c=A2B2 & E6 | 
[V:2] C>_A,^F,2G,2 & E,6 | 
[V:1] =BcdeG=A & F2<G2E2- | 
[V:2] G,2=B,C =A,C & D,E,D,C,F,2 | 
[V:1] c4B2 & E4D2 | 
[V:2] =A,2F,2_B,2 & B,,4_B,_A, | 
[V:1] eBd=ABc & E2D4 | 
[V:2] B,2=A,4 & G,2^F,4 | 
[V:1] B4G2 & D4G2 | 
[V:2] B,4D2 & G,4B,2 | 
[V:1] gdgfed & G6- | 
[V:2] D6 & =B,6 | 
[V:1] e4c2 & G6 | 
[V:2] C4E2 & C4C,2 | 
[V:1] z cBAGF & x AGFED | 
[V:2] x2x2B,2 & z2z2B,A, | 
[V:1] B4e2 & E6 | 
[V:2] B,4C2 & G,2_G,2C,2 | 
[V:1] z2z2B2 & x2x2ED | 
[V:2] z CB,A,G,F, & x A,G,F,E,B,, | 
[V:1] E4z2 & B,4x2 | 
[V:2] G,4z2 & E,4x2 | 
[V:1] EF_GAB_c & z6 | 
[V:2] z6 & z6 | 
[V:1] B4=D2 & z6 | 
[V:2] z6 & z6 | 
[V:1] E6 & z6 | 
[V:2] z6 & E,F,_G,A,B,_C | 
[V:1] D6 & z6 | 
[V:2] z6 & B,4A,2 | 
[V:1] EF_G2A2 & z DE4 | 
[V:2] z B,B,2A,2 & _G,B,,E,_D,_C,2 | 
[V:1] B6- & F6 | 
[V:2] E2=DCD2 & B,,6- | 
[V:1] B6- & A2_G2E2 | 
[V:2] F2E2C2 & B,,6- | 
[V:1] B4B2 & F4z2 | 
[V:2] =D4z2 & B,,4z2 | 
[V:1] G2AG^FG & E6- | 
[V:2] B,2CB,=A,B, & E,6- | 
[V:1] e>c=A2B2 & E6 | 
[V:2] C>_A,^F,2G,2 & E,6 | 
[V:1] [d6A6F6]- | 
[V:2] B,,2_C,B,,=A,,B,, | 
[V:1] d2f2e2 & [A2F2][G4E4] | 
[V:2] B,=B,C4 | 
[V:1] z FGAcB & z6 | 
[V:2] z F,G,A,CB, & z6 | 
[V:1] g4f2 & z6 | 
[V:2] G4F2 & z6 | 
[V:1] z FGACD & z6 | 
[V:2] z F,G,A,C,D, & z6 | 
[V:1] G4F2 & z6 | 
[V:2] G,4F,2 & z6 | 
[V:1] E6- & G,6- | 
[V:2] B,,2C,B,,=A,,B,, & E,,6- | 
[V:1] !fermata!E6 & G,6 |]  
[V:2] E,6 & !fermata!E,,6 |]  


